X:1
T: The De Golyer Hornpipe
C:
R:Reel
Q: 232
K:A
M:4/4
L:1/8
|:E2|AG AB AB cd|e^d ef ec BA|e^d ef ec BA|Ge BG E2 FG|
AG AB AB cd|e^d ef ee fg|gg gf ^de fg|e2 e2 e2:|
|:BA|Ge Be Ge Be|Ae ce Ae ce|fg ag fe dc|BA GF EF GE|
AB cA FG ^AF|Bc dB GA BG|Aa gf ed cB|c2 A2 A2:|
